X: 41011
T: Trip To Gortin, The
R: jig
M: 6/8
K: Amixolydian
|:~A3 ~e3|gfe fed|ABA ~e3|gfe d2B|~A3 ~e3|gfe fed|Ace ~a3|fec d3:|
|:A ~a2age|A ~g2ged|~A3 ~c3|dBA ~B2c|A ~a2age|A ~g2ged|Ace ~a3|fec d3:|

